X: 30
T:Devent Castle. HS.30
T:Roxburgh Castle,aka. HS.30
M:C|
Q:160
C:Roxburgh Castle,aka
S:Henry Stables MS,Cumbria,late19thC
R:Hornpipe
O:Walthwaite,nr.Ambleside.
A:England
Z:vmp.Chris Partington
K:A
(3EFG|A2Ac ecAc|dfdf ecAc|d2fdc2ec|d2B2B2(3EFG|!
A2Ac ecAc|dfdf ecAc|.e.a.g.f .e.d.c.B|B2A2A2::!
(3efg|aece Aece|aece Aece|aece Aece|d2B2B2(3EFG|!
A2Ac ecAc|dfdf ecAc|.e.a.g.f .e.d.c.B|B2A2A2:||
